X:1
T:O dolce vita mia, non mi far guerra
T:O dolce vita mia, non mi far guerra
T:Baldassare Donato (1530?-1603)
%%score [ 1 2 3 4 ]
L:1/8
M:4/4
K:F
V:1 treble nm="Soprano"
V:2 treble nm="Alto"
V:3 treble-8 nm="Tenor"
V:4 bass nm="Bass"
V:1
 A8 | A4 c4 | B4 B4 | A8 | G4 z2 G2 | A2 A2 F2 F2 | B6 G2 | G2 F2 (F2 E2) |1 F4 z4 :|2 %9
w: O|dol- ce|vi- ta|mi-|a, o|dol- ce vi- ta|mia, non|mi far guer- *|ra.|
 F2 A2 A2 A2 || B8 | A2 G2 G2 G2 | A3 B c2 A2 | G2 F2 (F2 E2) | F4 G4 |: A6 G2 | F4 (E2 D2 | %17
w: \-ra, ch'io mi ti|ren-|do, ch'io mi ti|ren- do sen- za|con- tra- sta- *|re. E|se per|a- do- *|
 ^C2 =B,2) (D2 C2) | D4 A4 | B4 G4 | A4 F4 | (F4 E4) |1 F4 G4 :|2 F4 A4 || A2 c2 B2 G2 | A6 F2 | %26
w: * * rar- *|te io|deb- b'a-|ver tor-|men- *|to, e|\-to, fac-|cia- si~a vo- glia|tua, ch'io|
 E2 D2 D2 ^C2 | D4 A4 | A2 c2 B2 G2 | A6 F2 | E2 D2 (D2 ^C2) | D2 A4 B2- | B2 A2 G4 | ^F8 |] %34
w: son con- ten- *|to, fac-|cia- si~a vo- glia|tua, ch'io|son con- ten- *|to, ch'io son|_ con- ten-|to.|
V:2
 z4 F4 | F4 F4 | F4 E4 | F8 | E2 E2 D2 E2 | F6 D2 | D4 D4 | G,2 C2 C4 |1 C4 z4 :|2 C4 z2 F2 || %10
w: O|dol- ce|vi- ta|mi-|a, o dol- ce|vi- ta|mia, non|mi far guer-|ra.|\-ra, ch'io|
 F2 F2 E4 | F2 E2 E2 E2 | C2 D2 E2 F2 | D2 D2 C4 | C4 E4 |: F6 E2 | D4 (C2 B,2) | A,8 | A,4 F4 | %19
w: mi ti ren-|do, ch'io mi ti|ren- do sen- za|con- tra- sta-|re. E|se per|a- do- *|rar-|te io|
 D4 E4 | F4 C4 | C8 |1 C4 E4 :|2 C4 F4 || F2 E2 G2 E2 | F6 C2 | C2 B,2 A,4 | A,4 F4 | F2 E2 G2 E2 | %29
w: deb- b'a-|ver tor-|men-|to, e|\-to, fac-|cia- si~a vo- glia|tua, ch'io|son con- ten-|to, fac-|cia- si~a vo- glia|
 F6 C2 | C2 B,2 A,4 | A,2 F4 D2- | D2 D2 D4 | D8 |] %34
w: tua, ch'io|son con- ten-|to, ch'io son|_ con- ten-|to.|
V:3
 c8 | c4 c4 | d4 B4 | c8 | c2 c2 =B2 c2 | c4 d4 | G4 B4 | c2 A2 G4 |1 A4 z4 :|2 A2 c2 c2 c2 || %10
w: O|dol- ce|vi- ta|mi-|a, o dol- ce|vi- ta|mia, non|mi far guer-|ra.|\-ra, ch'io mi ti|
 d4 B4 | z2 c2 c2 c2 | A2 F2 G2 A2 | B3 A G4 | A4 z2 c2 |: c6 c2 | A4 (G2 F2) | E8 | D4 d4 | %19
w: ren- do,|ch'io mi ti|ren- do sen- za|con- tra- sta-|re. E|se per|a- do- *|rar-|te io|
 B2 G2 c4- | c4 A4 | G8 |1 A4 z2 c2 :|2 A4 c4 || c2 c2 d2 c2 | c6 A2 | G2 G2 E4 | D4 d4 | %28
w: deb- b'a- ver|_ tor-|men-|to, e|\-to, fac-|cia- si~a vo- glia|tua, ch'io|son con- ten-|to, fac-|
 c2 A2 d2 c2 | c6 A2 | G2 G2 E4 | F4 D2 G2- | G2 F2 B4 | A8 |] %34
w: cia- si~a vo- glia|tua, ch'io|son con- ten-|to, ch'io son|_ con- ten-|to.|
V:4
 F,8 | F,4 A,4 | B,4 G,4 | F,8 | C,2 C,2 G,2 C,2 | F,2 F,2 B,4- | B,4 G,4 | E,2 F,2 C,4 |1 %8
w: O|dol- ce|vi- ta|mi-|a, o dol- ce|vi- ta mi-|a, non|mi far guer-|
 F,4 z4 :|2 F,,4 z2 F,2 || B,2 B,2 G,4 | F,2 C,2 C,2 C,2 | F,2 D,2 C,2 F,,2 | B,,2 B,,2 C,4 | %14
w: ra.|\-ra ch'io|mi ti ren-|do, ch'io mi ti|ren- do sen- za|con- tra- sta-|
 F,,4 C,4 |: F,6 C,2 | D,4 G,,4 | A,,8 | D,4 D,4 | G,4 C,4 | F,4 z2 F,,2 | C,8 |1 F,,4 C,4 :|2 %23
w: re. E|se per|a- do-|rar-|te io|deb- b'a-|ver tor-|men-|to, e|
 F,4 F,4 || F,2 A,2 G,2 C,2 | F,4 F,,4 | C,2 G,,2 A,,4 | D,4 D,4 | F,2 A,2 G,2 C,2 | F,4 F,,4 | %30
w: \-to, fac-|cia- si~a vo- glia|tua, ch'io|son con- ten-|to, fac-|cia- si~a vo- glia|tua ch'io|
 C,2 G,,2 A,,4 | D,4 z2 G,,2 | D,2 D,2 G,,4 | D,8 |] %34
w: son con- ten-|to, ch'io|son con- ten-|to.|

